!!!SOCIAL_FUNCTION:	war songs
!!!PDT:	1932
!!!OTL: No_124_Song_Concerning_a_Captive_Woman.krn
!!!REG: Wisconsin
!!!LANG: Non-Tone
!!!LING_GROUP: Algonquin
**kern
*staff1
=1-
*clefF4
*k[b-]
*M2/4
4r
8r
8c\
=2
4c\
8c\L
8c\J
=3||
*M3/4
[2c\
8c\L]
8c\J
=4||
*M2/4
4B-\
8G\L
8F\J
=5||
*M3/4
2F\
8r
8G\
=6||
*M2/4
4B-\
8G\L
8F\J
=7||
*M3/4
[2F\
8F\L]
8G\J
=8||
*M2/4
4F\
8D/L
8C/J
=9||
*M3/4
2C/
8r
8D\
=10||
*M2/4
4F\
8D/L
8C/J
=11||
*M3/4
2C/
8r
8C/
=12||
*M2/4
4C/
8D/L
8C/J
=13||
*M3/4
2C/
8r
8G\
=14||
*M2/4
4A\
8G\L
8G\J
=15||
*M3/4
[2G\
8G\L]
8G\J
=16||
*M2/4
4F\
8D/L
8C/J
=17||
*M3/4
2C/
8r
8F\
=18||
*M2/4
4G\
8F\L
8F\J
=19||
*M3/4
2F\
8r
8G\
=20||
*M2/4
4F\
8D/L
8C/J
=21||
*M3/4
2C/
8r
8C/
=22||
*M2/4
4F\
8D/L
8C/J
=23||
*M3/4
2C/
8r
8C/
=24||
*M2/4
4C/
8D/L
8C/J
=25
4C/
8C/L
8C/J
=26
4C/
4r
==
*-
